svg_schematique/SCH ID.svg

<?xml version="1.0" encoding="UTF-8"?>
<svg xmlns="http://www.w3.org/2000/svg" xmlns:xlink="http://www.w3.org/1999/xlink" width="128px" height="128px" viewBox="0 0 128 128" version="1.1">
<g id="surface1">
<rect y="0" x="0" height="128" width="128" id="rect842" style="fill:#ffffff;fill-opacity:0;stroke:none;stroke-width:9.14344" />
<path style="fill-rule:nonzero;fill:rgb(100%,100%,100%);fill-opacity:1;stroke-width:1;stroke-linecap:round;stroke-linejoin:round;stroke:rgb(0%,0%,0%);stroke-opacity:1;stroke-miterlimit:4;" d="M 26.5 55.5 L 37.5 55.5 L 37.5 63.509766 L 26.5 63.5 Z M 26.5 55.5 " transform="matrix(2,0,0,2,0,0)"/>
<path style=" stroke:none;fill-rule:nonzero;fill:rgb(0%,0%,0%);fill-opacity:1;" d="M 65.5625 114.941406 L 61.828125 114.941406 C 61.410156 114.941406 61.203125 114.78125 61.203125 114.460938 C 61.203125 114.152344 61.410156 114 61.828125 114 L 66.433594 114 C 66.804688 114 66.992188 114.125 66.992188 114.378906 C 66.992188 114.515625 66.945312 114.636719 66.855469 114.746094 L 64.621094 117.476562 C 64.761719 117.449219 64.898438 117.433594 65.03125 117.433594 C 65.664062 117.433594 66.164062 117.632812 66.53125 118.03125 C 66.90625 118.421875 67.09375 118.933594 67.09375 119.566406 C 67.09375 120.785156 66.46875 121.84375 65.21875 122.75 C 64.074219 123.582031 62.871094 124 61.613281 124 C 61.140625 124 60.90625 123.859375 60.90625 123.574219 C 60.90625 123.289062 61.105469 123.144531 61.496094 123.144531 C 62.21875 123.144531 62.875 123.015625 63.457031 122.757812 C 64.136719 122.460938 64.726562 122.054688 65.226562 121.535156 C 65.820312 120.921875 66.117188 120.296875 66.117188 119.652344 C 66.117188 119.304688 66 119.003906 65.769531 118.753906 C 65.546875 118.5 65.261719 118.375 64.914062 118.375 C 64.648438 118.375 64.320312 118.457031 63.9375 118.621094 C 63.554688 118.78125 63.316406 118.863281 63.21875 118.863281 C 62.996094 118.863281 62.882812 118.726562 62.882812 118.453125 C 62.882812 118.300781 62.941406 118.15625 63.054688 118.015625 Z M 65.5625 114.941406 "/>
</g>
</svg>

<svg xmlns="http://www.w3.org/2000/svg" width="128" height="128"><path fill="none" d="M0 0h128v128H0z" style="fill:#fff;fill-opacity:0;stroke:none;stroke-width:9.14344"/><path d="M26.5 55.5h11v8.01l-11-.01Zm0 0" style="fill-rule:nonzero;fill:#fff;fill-opacity:1;stroke-width:1;stroke-linecap:round;stroke-linejoin:round;stroke:#000;stroke-opacity:1;stroke-miterlimit:4" transform="scale(2)"/><path d="M65.563 114.941h-3.735c-.418 0-.625-.16-.625-.48 0-.309.207-.461.625-.461h4.606c.37 0 .558.125.558.379a.563.563 0 0 1-.137.367l-2.234 2.73c.14-.027.277-.042.41-.042.633 0 1.133.199 1.5.597.375.39.563.903.563 1.535 0 1.22-.625 2.278-1.875 3.184-1.145.832-2.348 1.25-3.606 1.25-.472 0-.707-.14-.707-.426 0-.285.2-.43.59-.43.723 0 1.379-.128 1.961-.386a5.458 5.458 0 0 0 1.77-1.223c.593-.613.89-1.238.89-1.883 0-.347-.117-.648-.347-.898a1.085 1.085 0 0 0-.856-.379c-.266 0-.594.082-.977.246-.382.16-.62.242-.718.242-.223 0-.336-.136-.336-.41a.69.69 0 0 1 .172-.437Zm0 0" style="stroke:none;fill-rule:nonzero;fill:#000;fill-opacity:1"/></svg>
